X: 3017
Q:"Strathspey."
M: C
L: 1/8
K: D
uD>uB, |\
vA,>uB, D<D D2 d>B | A>FE>D E2(E>F) |\
(3ABc) |\
d>ed>c B>A (B<d) | A<F E>D E2-EA |\
d>ed>c B>A (B<d) | A<F E>F D2 :|


